X:1
T:Hupfauf-Polka
C:traditionell, bearbeitet von Sepp Pichler
R:Polka
A:Oststeiermark
%%textfont Helvetica-Narrow 10pt
%%begintext align
S:Auf einem von Sepp Pichler geschriebenen notenblatt aus dem besitz von Luise Buisman mit dem vermerk: Handschrift Franz Allmer
N:bei Pichler in G (1.teil) und C (2.teil), erster ton d'', zweistimmig.
%%endtext
Z:abc transcripton Simon Wascher
Z:abc transcription Simon Wascher
M:2/4
L:1/16
K:G
V:1
d4 d4 | g6 B2 | A3B c2d2 | BcBA G4 |
V:2
K:G
B4 B4 | d6 G2 | A3G A2B2 | G2e2 d2c2 |
%
V:1
d4 d4 | g6 B2 | A3B c2d2 |1 B2d2 B4 :|\
                         [2 B2 G2A2B2 ||
V:2
B4 B4 | d6 G2 | A3G A2B2 |1 G2B2 G4 :|\
                         [2 G2 g2^f2=f2 ||
%
V:1
K:C
|:\
c4 c4- | c2 G2c2d2 | e4 e4- | e2 G2c2e2 |
V:2
K:C
|:\ 
e4 e4- | e2 c2e2f2 | g4 g4- | g2 c2e2g2 |
%
V:1
d4 d4- | d4 G2B2d2 | c2dc B2A2 | G2 G2A2B2 |
V:2
f4 f4- | f4 d2g2f2 | e2fe d2c2 | e2 g2^f2=f2 |
%
V:1
c4 c4- | c2 G2c2d2 | e4 e4- | e2 G2c2e2 |
V:2
e4 e4- | e2 c2e2f2 | g4 g4- | g2 c2e2g2 |
%
V:1
d4 g4- | g2 f2e2d2 | c2dc B2AB |1 c2 G2A2B2 :|\
                               [2 c2e2 c4 |]
V:2
f2B2 d2e2 | f2a2 g2f2 | e2fe d2ed |1 c2 g2^f2=f2 :|\
                                  [2 c2G2 c4 |]
